X:39
T:Au soleil du ressuscit
C:H. Bourel
M:4/4
L:1/4
K:F
"^Refrain"zCFGS||"Sib"GA/G/- G/F3/-|"Do"FCFG|"Fa"BAGF/F/-|
FCFG|"Sib"GA/G/- G/F3/-|"Do"FCFG|"Fa"FAGF/F/-|
"^Couplets"FFAc|"Solm"BA/F/-F2|"Fa"BA/F/-F2|"Sib"BAF/GA/-|
"Fa"AFAc|"Solm"BA/F/-FC|"Fa"BA/F/-FC|"Sib"BAF/GG/-|"Do"GCFGS|]
